X: 1
T: No_100_Song_Before_a_Boy_Goes_Out_to_Fast.krn
%%abc-version 2.0
%%abcx-abcm2ps-target-version 5.9.1 (29 Sep 2008)
%%abc-creator hum2abc beta
%%abcx-conversion-date 2020/08/10 18:54:56
%%gracespace 0 6 6
%%humdrum-veritas 2411587390
%%humdrum-veritas-data 2872402432
%%linebreak <none>
%%barnumbers 0
L: 1/8
M: 3/4
%%staves {1 2}
V: 1 clef=bass
V: 2 clef=bass
K: Db
[V:1] [K:clef=bass][M:3/4]DD DDC2 ||  
[V:2] [K:clef=bass][M:3/4]G,,G,, G,,G,, G,,G,, ||  
[V:1] [M:2/4]DD DD | 
[V:2] [M:2/4]G,,G,, G,,G,, | 
[V:1] C7/=A,/ | 
[V:2] z4 | 
[V:1] CC/C< DC/ | 
[V:2] z4 | 
[V:1] B,B, CB,/A,/ | 
[V:2] z4 | 
[V:1] B,2-B,/F,/F, | 
[V:2] z4 | 
[V:1] B,B,/>A,/ (3B,A,-A,- | 
[V:2] z4 | 
[V:1] A,2A,A, | 
[V:2] z4 | 
[V:1] B,4- | 
[V:2] z4 | 
[V:1] B,4- | 
[V:2] z4 | 
[V:1] B,4 |]  
[V:2] z4 |]  


